X: 75
T:Upstairs and to Bed. JBi.74
M:C|
Q:180
S:James Biggins MS,Leeds,1779
R:Reel
O:England
A:Yorkshire
Z:vmp.Chris Partington
K:D
"Key C in ms"\
A2|defd ecac|BffB BffB|defd ecac|AeeA AeeA::!
f/g/|afge fdec|BffB BffB|afge fdec|AeeA AeeA||
